dist/img/cart_2.svg

<svg width="25" height="22" viewBox="0 0 25 22" fill="none" xmlns="http://www.w3.org/2000/svg">
<path d="M23.9728 4.00553H4.42589L4.13533 0.897665C4.08781 0.389428 3.64417 0 3.11273 0H1.02671C0.459671 0 0 0.441345 0 0.985775C0 1.5302 0.459671 1.97155 1.02671 1.97155H2.17408C2.8011 8.67867 1.18057 -8.65674 3.35493 14.603C3.43873 15.5134 3.95106 16.5013 4.83364 17.1726C3.24239 19.1236 4.6963 22 7.28473 22C9.43309 22 10.9484 19.9427 10.2116 17.9943H15.8309C15.0951 19.9402 16.6071 22 18.7578 22C20.4742 22 21.8706 20.6593 21.8706 19.0114C21.8706 17.3634 20.4742 16.0227 18.7578 16.0227H7.29167C6.51176 16.0227 5.83213 15.571 5.53879 14.9127L21.9469 13.9869C22.3949 13.9616 22.7739 13.6599 22.8827 13.2419L24.9689 5.23038C25.1306 4.60915 24.6409 4.00553 23.9728 4.00553Z" fill="url(#paint0_linear)"/>
<defs>
<linearGradient id="paint0_linear" x1="11.745" y1="-4.39583e-07" x2="24.2727" y2="14.492" gradientUnits="userSpaceOnUse">
<stop stop-color="#14E753"/>
<stop offset="0.9999" stop-color="#0AB73E"/>
<stop offset="1" stop-color="#0AB73E"/>
</linearGradient>
</defs>
</svg>

<svg width="25" height="22" fill="none" xmlns="http://www.w3.org/2000/svg"><path d="M23.973 4.006H4.426L4.136.898C4.087.389 3.643 0 3.112 0H1.027C.46 0 0 .441 0 .986c0 .544.46.986 1.027.986h1.147l1.18 12.631c.085.91.597 1.898 1.48 2.57C3.242 19.123 4.696 22 7.284 22c2.15 0 3.664-2.057 2.928-4.006h5.619C15.095 19.94 16.607 22 18.758 22c1.716 0 3.113-1.34 3.113-2.989 0-1.648-1.397-2.988-3.113-2.988H7.292a1.91 1.91 0 01-1.753-1.11l16.408-.926c.448-.025.827-.327.936-.745l2.086-8.012c.162-.62-.328-1.224-.996-1.224z" fill="url(#paint0_linear)"/><defs><linearGradient id="paint0_linear" x1="11.745" y1="0" x2="24.273" y2="14.492" gradientUnits="userSpaceOnUse"><stop stop-color="#14E753"/><stop offset="1" stop-color="#0AB73E"/><stop offset="1" stop-color="#0AB73E"/></linearGradient></defs></svg>
